X: 59
T:Woodcock, The
M:6/8
L:1/8
C:Comp. Hammy Hamilton
R:Double Jig
K:G
dBG cGE|DED ~G3|~B3 dBG|dcB ABc|!
dBG cGE|DED ~G3|B2B dcA|AGF G2B:|]!
d^cd ~e3|~f3 g2g|e/2f/2ge dBG|dcB A2B|!
d^cd ~e3|~f3 g2g|e/2f/2ge dcA|AGF G2B||!
d^cd ~e3|~f3 g2g|e/2f/2ge dBG|dcB ABc|!
dBG cGE|DED ~G3|B2B dcA|AGF G2B|]!
